X:1
T:The Blood upon the Door
T:The Blood upon the Door
T:George Crawford Hugg
T:Johnson Oatman, Jr., 1896
T:Public Domain Courtesy of the Cyber Hymnal™
T:Public Domain Courtesy of the Cyber Hymnal™
C:George Crawford Hugg
Z:Public Domain
Z:Courtesy of the Cyber Hymnal™
%%score ( 1 2 ) ( 3 4 )
L:1/8
Q:1/4=93
M:6/8
K:D
V:1 treble 
V:2 treble 
V:3 bass 
V:4 bass 
V:1
 [FA]2 [GB] [FA]2 [DF] z2 | [CE]2 [DF]B, [A,D] z z2 | [FA]2 [GB] [FA]2 [DF] z2 | %3
w: 1.~When the Lord passed|o- ver E- gypt,|There was weep- ing|
w: 2.~We are in a|land of dan- ger,|And death lurks on|
w: 3.~Not the blood of|lambs or cat- tle,|Sprin- kled o- ver|
 [CE]2 [DF] [CE]3 z2 | [DA]2 [DB] [DA]2 [DF] z2 | [CE]2 [DF]B, [A,D] z z2 | D2 [DB] [DA]2 [DF] z2 | %7
w: ev- ery- where,|For the an- gel|smote the first- born|Of each fam- ily|
w: ev- ery hand;|But that soul has|per- fect safe- ty|Who o- beys the|
w: an- y part,|But the blood of|Christ the Sav- ior,|Can re- deem a|
 [CE]2 [CF] D3 z2 | [FA]2 [FA] [GB]2 [Bd] z2 | [Ac]2 [GB][GB] [FA] z z2 | %10
w: dwell- ing there;|But some hous- es|He passed o- ver,|
w: Lord’s com- mand;|For se- cure in|God’s pa- vil- ion,|
w: hu- man heart;|Then when death those|ties shall se- ver,|
 [FA]2 [DF] [Fd]2 [DF] z2 | [CE]2 D [CA]3 z2 | [DA]2 [DB] [DA]2 [DF] z2 | [CE]2 [DF]B, [A,D] z z2 | %14
w: As His word had|said be- fore,|And death en- tered|not the por- tals|
w: He can watch life’s|break- ers roar,|For God’s an- gels|guard that dwell- ing|
w: And we walk on|earth no more,|We may live with|Christ for- ev- er|
 D2 [DB] [DA]2 [DF] z2 | [CE]2 [CF] D3 z2 |"^Refrain" [FA]2 [DF] !fermata![FA]2 [DF] z2 | %17
w: Where the blood was|on the door.||
w: Where the blood is|on the door.|Pre- cious blood up-|
w: If His blood is|on the door.||
 [CE]2 [A,D] [A,D]3 z2 | [FA]2 [DF] !fermata![FA]2 [GB] z2 | [FA]2 [DF] [CE]3 z2 | %20
w: |||
w: on the door,|Sav- ing blood up-|on the door;|
w: |||
 [DF]2 [FA] [Fd]2 [Fe] z2 | [Fd]2 [FA][Ac] !fermata![GB] z z2 | [FA]2 [FA] [FA]2 [DF] z2 | %23
w: |||
w: O, my soul, there|is no dan- ger,|When the blood is|
w: |||
 [CE]2 [A,D] [A,D]3 z2 |] %24
w: |
w: on the door.|
w: |
V:2
 x8 | x3 B, x4 | x8 | x8 | x8 | x3 B, x4 | D2 x6 | x3 D3 x2 | x8 | x8 | x8 | x2 D x5 | x8 | %13
 x3 B, x4 | D2 x6 | x3 D3 x2 | x8 | x8 | x8 | x8 | x8 | x8 | x8 | x8 |] %24
V:3
 [D,D]2 [D,D] [D,D]2 [D,A,] | [A,,A,]2 [D,A,] [D,G,][D,F,] z z2 | [D,D]2 [D,D] [D,D]2 [D,A,] z2 | %3
 [A,,A,]2 [A,,A,] (A,2 G,) z2 | [D,F,]2 [D,G,] [D,F,]2 [D,A,] z2 | %5
 [A,,A,]2 [D,A,] [D,G,][D,F,] z z2 | [D,F,]2 [G,,G,] [A,,F,]2 [A,,A,] z2 | %7
 [A,,A,]2 [A,,A,] [D,F,]3 z2 | [D,D]2 [D,D] [G,D]2 [G,D] z2 | [G,D]2 [G,D] [D,D][D,D] z z2 | %10
 [D,D]2 [D,A,] [D,A,]2 [D,A,] z2 | [A,,G,]2 [A,,F,] E,2 G, z2 | [D,F,]2 [D,G,] [D,F,]2 [D,A,] z2 | %13
 [A,,A,]2 [D,A,] [D,G,][D,F,] z z2 | [D,F,]2 [D,G,] [D,F,]2 [D,A,] z2 | %15
 [A,,A,]2 [A,,A,] [D,F,]3 z2 | [D,D]2 [D,A,] !fermata![D,D]2 [D,A,] z2 | %17
 [A,,G,]2 [D,F,] [D,F,]3 z2 | [D,D]2 [D,A,] !fermata![D,D]2 [D,D] z2 | [D,D]2 [D,A,] [A,,A,]3 z2 | %20
 [D,A,]2 [D,D] [D,A,]2 [D,A,] z2 | [D,A,]2 [D,A,] [G,D]!fermata![G,D] z z2 | %22
 [A,D]2 [A,D] [A,D]2 A, z2 | [A,,G,]2 [D,F,] [D,F,]3 z2 |] %24
V:4
 x6 | x8 | x8 | x3 A,,3 x2 | x8 | x8 | x8 | x8 | x8 | x8 | x8 | x3 A,,3 x2 | x8 | x8 | x8 | x8 | %16
 x8 | x8 | x8 | x8 | x8 | x8 | x5 A, x2 | x8 |] %24

